X:1
T:The Gypsy's Warning
M:3/4
L:1/8
K:D
 z4 DE| F3 FF F| F A3 GF| E3 FG E| F4 DE| F3 FF F| F A3 GF| E3 FG E|\
 D4 FA| d3 cd B| B A3 FA| d3 cd B| A4 DE| F3 FF F| F A3 GF| E3 FG E|\
 D4 z2|
